X:1
T:Title
%%score { 1 | ( 2 3 ) }
L:1/8
Q:1/4=100
M:6/8
K:Bb
V:1 treble nm="Grand Piano"
V:2 bass 
V:3 bass 
V:1
 [DF]2 [DF] [DF][EG][EA] | [DB]3 [DF]3 | G2 c B2 G | [DF]6 | E2 E EFG | [DF]3 [DB]3 | %6
w: H.~L.~Gilmoure * * * *||||||
 [CA]2 [CA] [FA]2 [=EG] | F6 | c2 B AGF | [DB]3 [DF]3 | [EG]2 [EG] [=Ec]2 [EB] | [FA]6 | %12
w: ||||||
 [DF][EG][FA] [DB][Ec][Fd] | [Ge]3 G3 | F2 F d2 c | [DB]6 | c2 c c2 c | [Fd]3 [DB]3 | e2 d c2 B | %19
w: |||||||
 F6 | [DF][EG][FA] [DB][Ec][Fd] | [Ge]3 G3 | F2 F d2 c | [DB]6 |] %24
w: |||||
V:2
 [B,,B,]2 [B,,B,] [B,,B,]2 [B,,F,] | [B,,F,]3 [B,,B,]3 | [E,B,E]2 [E,G,E] [E,G,E]2 [E,B,E] | %3
 [B,,B,]6 | z3 .C3 | [B,,B,]3 [B,,F,]3 | [C,F,]2 [C,A,] [C,C]2 [C,B,] | [F,A,C]6 | z3 .C3 | %9
 [B,,B,]3 [B,,B,]3 | [E,B,]2 [E,G,] [C,G,]2 [C,C] | [F,C]6 | [B,,B,]2 [B,,F,] [B,,F,]2 [B,,B,] | %13
 [E,B,]3 [E,B,E]3 | [F,D]2 [F,B,D] [F,F]2 [F,A,E] | [B,,B,]6 | [F,A,F]2 [F,A,F] [F,A,F]2 [F,A,F] | %17
 [B,,B,]3 [B,,F,]3 | [E,E]2 [D,D] [C,C]2 [B,,B,] | [F,A,C]6 | [B,,B,]2 [B,,F,] [B,,F,]2 [B,,B,] | %21
 [E,B,]3 [E,B,E]3 | [F,B,D]2 [F,B,D] [F,B,F]2 [F,A,E] | [B,,B,]6 |] %24
V:3
 x6 | x6 | x6 | x6 | [F,A,C]2 [F,A,C] [F,A,]-[F,A,D][F,A,E] | x6 | x6 | x6 | %8
 [F,A,E]2 [F,B,D] [F,E]-[F,B,E][F,A,E] | x6 | x6 | x6 | x6 | x6 | x6 | x6 | x6 | x6 | x6 | x6 | %20
 x6 | x6 | x6 | x6 |] %24

